X:1
T:Si de present 3v
T:Si de present 3v
T:Tielman Susato
T:Source : Le premier livre des Chansons à 3 parties---Anvers---T.Susato---1544. Editor : André Vierendeels (08/02/15).
C:Tielman Susato
%%score [ 1 [ 2 3 ] ]
L:1/8
Q:1/4=80
M:4/4
K:C
V:1 treble nm="Superius" snm="S"
V:2 treble-8 nm="Tenor 1" snm="T 1"
V:3 treble-8 nm="Tenor 2" snm="T 2"
V:1
 z8 | z4 G2 GA | B3 G A2 B2 | c2 BA G2 c2- | c2 B2 A2 G2- | GFED C2 c2 | B2 A3 G G2- | %7
w: |Si de pre-|sent pai- ne ien-|du- * * re, di-|* re puis par|_ _ _ _ mons et|par _ _ _|
"^#" G2 F2 G4- | G4 z2 G2 | GABG AB c2- | c2 BA G2 c2 | B2 A2 GFED | C2 c2 B2 A2- | AG G4 F2 | %14
w: _ _ vaulx|_ que|c'est d'ung plai- sir qui peu du-|* * * re dont|iay souf _ _ _ _|fert tant de tra-||
 G4 E2 F2- | FE ED/C/ D4 | E4 z2 C2 | G3 E F2 G2 | A3 G E4 | z2 G2 c2 B2 | c2 d2 edcB | %21
w: ||vaulx, en|en- du- rant maintz|griefz as- saulx,|en en- du-|rant maintz griefz _ _ _|
 AGFE D2 d2- | dc c4 B2 | c2 e2 dBcc | BG A2 G2 c2 | BGAA GE F2 | E2 z C CDEF | G2 G2 G2 G2 | %28
w: _ _ _ _ _ as-||saulx, mais- dieu fe- ra par|a- van- tu- re, mais|dieu fe- ra par a- van- tu-|re, qu'al- le- * * *|gé se- ra de|
 AB cA Bc d2- | dc c4 B2 | c2 e2 dBcc | BG A2 G2 c2 | BGAA GE F2 | E2 z C CDEF | G2 G2 G2 G2 | %35
w: mes _ _ _ _ _ _|_ _ _ _|maulx, mais dieu fe- ra par|a- van- tu- re, mais|dieu fe- ra par a- van- tu-|re, qu'al- le- * * *|gé se- ra de|
 ABcA Bc d2- | dc c4 B2 | c8 |] %38
w: mes _ _ _ _ _ _|_ _ _ _|maulx.|
V:2
 z8 | c2 cd e3 c | d2 e2 f2 ed | c2 g3 f e2 | d4 c3 B/A/ | G2 g3 f e2 | d4 c2 B2 | A4 G4 | %8
w: |Si de pre- sent pai-|ne ien- du- * *|re, di- re puis|par mons, _ _|_ di- re puis|par mons et|par vaulx|
 z4 c2 cd | ecde f3 e/d/ | cccd e3 c | de f2 e2 g2- | gf e2 d4 | c2 B2 A4 | G2 c2 c2 FG | %15
w: que c'est d'ung|plai- sir qui peu du- * *|re, que c'est d'ung plai- sir|qui peu du- re dont|_ iay souf- fert|tant de tra-|vaulx, tant de tra- *|
 AB c4 B2 | c2 z G c3 A | B2 c2 d2 e2 | d c2 B c2 z c | g2 e2 f2 g2 | a2 gf e2 e2 | fe d2 f4 | %22
w: |vaulx, en en- du-|rant maintz griefz as-|* * * saulx, en|en- du- rant maintz|griefz _ _ _ as-||
 e2 c2 d4 | c2 c2 BGcc | de f2 e2 e2 | dBcA B c2 B | c4 z2 c2 | cdef g2 e2 | fdef g4 | f2 e2 d4 | %30
w: |saulx, mais dieu fe- ra par|a- van- tu- re, mais|dieu fe- ra par a- van- tu-|re, qu'al-|le- * * * gé se-|ra _ _ _ de|_ _ mes|
 c2 c2 BGcc | de f2 e2 e2 | dBcA Bc d2 | c4 z2 c2 | cdef g2 e2 | fdef g4 | f2 e2 d4 | c8 |] %38
w: maulx, mais dieu fe- ra par|a- van- tu- re, mais|dieu fe- ra par a- van- tu-|re, qu'al-|le- * * * gé se-|ra _ _ _ de|_ _ mes|maulx|
V:3
 G2 GA B3 G | AB c4 BA | G4 F2 G2 | A2 B2 c4 | G4 z2 c2 | B2 c4 C2 | D3 E F2 G2 | D4 z2 G2 | %8
w: Si de pre- sent pai-|ne en- du- * *|* re, pai-|ne ien- du-|re, di-|re puis par|mons _ et par|vaulx que|
 GABG AB c2- | cB/A/ G2 FFFG | AF AB c3 B/A/ | G2 F2 C4 | C2 C2 D3 E | F2 G2 D4 | G2 C4 D2- | %15
w: cest d'un plai- sir qui peu du-|* * * * re, qui si peu|du- * * * * * *|* re, dont|iay souf- fert _|_ tant de|tra- * *|
 D2 E2 F2 G2 | CCcB c2 F2 | G2 E2 D2 z C | FEFG A2 A2 | GG c2 A2 G2 | F2 ED C4 | z2 D2 DEFG | %22
w: * * * vaulx,|en en- du- rant maints gri-|efz as- saulx, en|en- du- rant maints griefz as-|saulx, en en- du- rant|maints griefz as- saulx,|maints griefz _ _ _|
 A4 G4 | C2 C2 GGAA | GG F2 c2 C2 | GGFF EE D2 | C8 | c4 c2 c2 | F2 A2 G3 A | _B2 c2 G4 | %30
w: _ as-|saulx, mais dieu fe- ra par|a- van- tu- re, mais|dieu fe- ra par a- van- tu-|re,|qu'al- le- gé|se- ray de _|_ mes maulx,|
 z2 C2 GGAA | GG F2 c2 C2 | GGFF E2 D2 | A3 G F2 ED | C2 c2 c2 c2 | F2 A2 G3 A | _B2 c2 G4 | C8 |] %38
w: mais dieu fe- ra par|a- van- tu- re, mais|dieu fe- ra par a- van-|tu- * * * *|re, qu'al- le- gé|se- ra de _|_ _ mes|maulx.|

